newicons/emoji_antenna_bars.svg

<?xml version="1.0" encoding="UTF-8" standalone="no"?>
<svg
   version="1.2"
   viewBox="0 0 48 48"
   id="svg5"
   xmlns="http://www.w3.org/2000/svg"
   xmlns:svg="http://www.w3.org/2000/svg">
  <defs
     id="defs1" />
  <path
     d="M 5.5003065,35.562312 H 9.3544494 V 42.5 H 5.5003065 v -6.937688"
     fill="none"
     stroke="#ffffff"
     stroke-linecap="round"
     stroke-linejoin="round"
     stroke-width="1.15624"
     id="path1"
     style="stroke-width:1;stroke-dasharray:none" />
  <path
     d="m 13.786637,27.854026 h 3.854142 V 42.49946 H 13.786637 V 27.854026"
     fill="none"
     stroke="#ffffff"
     stroke-linecap="round"
     stroke-linejoin="round"
     stroke-width="1.15624"
     id="path2"
     style="stroke-width:1;stroke-dasharray:none" />
  <path
     d="M 22.072967,20.145742 H 25.92711 V 42.499075 H 22.072967 V 20.145742"
     fill="none"
     stroke="#ffffff"
     stroke-linecap="round"
     stroke-linejoin="round"
     stroke-width="1.15624"
     id="path3"
     style="stroke-width:1;stroke-dasharray:none" />
  <path
     d="m 30.35922,12.437456 h 3.854143 V 42.499075 H 30.35922 V 12.437456"
     fill="none"
     stroke="#ffffff"
     stroke-linecap="round"
     stroke-linejoin="round"
     stroke-width="1.15624"
     id="path4"
     style="stroke-width:1;stroke-dasharray:none" />
  <path
     d="m 38.64555,5.4999996 h 3.854143 V 42.499769 H 38.64555 V 5.4999996"
     fill="none"
     stroke="#ffffff"
     stroke-linecap="round"
     stroke-linejoin="round"
     stroke-width="1.15624"
     id="path5"
     style="stroke-width:1;stroke-dasharray:none" />
</svg>

<?xml version="1.0" encoding="UTF-8"?><svg id="b" xmlns="http://www.w3.org/2000/svg" viewBox="0 0 48 48"><defs><style>.h{fill:none;stroke:#fff;stroke-linecap:round;stroke-linejoin:round;}</style></defs><path id="c" class="h" d="m5.5,35.5623h3.8542v6.9377h-3.8542v-6.9377"/><path id="d" class="h" d="m13.7865,27.854h3.8542v14.6454h-3.8542v-14.6454"/><path id="e" class="h" d="m22.0729,20.1457h3.8542v22.3533h-3.8542v-22.3533"/><path id="f" class="h" d="m30.3593,12.4375h3.8542v30.0616h-3.8542V12.4375"/><path id="g" class="h" d="m38.6458,5.5h3.8542v36.9998h-3.8542V5.5"/></svg>
